X:14307
T:RIQUENIEE 1
Z: Yves Belotteau
M:6/8
L:1/8
Q:1/4=80
K:C 
|e/2ed/2c c/2d/2c/2d/2e|f/2ed/2c d/2c3/2A3/2|e/2ed/2c c/2d/2c/2d/2e|f/2e
d/2c d/2c3/2A3/2|
A/2A/2A/2c3/2 d/2c/2d/2e3/2|e/2e/2f/2ed/2 cB/2A3/2|A/2A/2A/2c3/2 d/2c/2d
/2e3/2|e/2e/2f/2ed/2 cB/2A3/2|
